teeny/solid/volume-2.svg

<svg width="15" height="15" viewBox="0 0 15 15" fill="none" xmlns="http://www.w3.org/2000/svg">
<path d="M9 1.5C9 1.31989 8.90313 1.1537 8.74641 1.06494C8.58969 0.976173 8.39735 0.978558 8.24288 1.07118L3.36159 3.99804H1.5C0.672491 3.99804 0 4.66798 0 5.49739V9.49479C0 10.3242 0.672491 10.9941 1.5 10.9941H3.36159L8.24288 13.921C8.39735 14.0136 8.58969 14.016 8.74641 13.9272C8.90313 13.8385 9 13.6723 9 13.4922V1.5Z" fill="black"/>
<path d="M12 4V11H13V4H12Z" fill="black"/>
<path d="M10 6V9H11V6H10Z" fill="black"/>
</svg>

<svg viewBox="0 0 15 15" xmlns="http://www.w3.org/2000/svg"><g><path d="M9 1.5c0-.19-.1-.35-.26-.44 -.16-.09-.35-.09-.51 0L3.34 3.98H1.47c-.83 0-1.5.66-1.5 1.49v3.99c0 .82.67 1.49 1.5 1.49h1.86l4.88 2.92c.15.09.34.09.5 0 .15-.09.25-.26.25-.44v-12Z"/><path d="M12 4v7h1V4h-1Z"/><path d="M10 6v3h1V6h-1Z"/></g></svg>
